!!!!SEGMENT: pl-wtm--r-2418_hertz-michal--niepewnosc-op-18.krn
!!!cenid: 18xx:3129
!!!COM: Hertz, Michał
!!!COM-rismID:
!!!CDT: 1844/09/28-~1918
!!!CNT: Polish
!!!OTL: Niepewność op. 18
!!!PDT:
!!!AGN:
!!!SMS-siglum: PL-Wtm
!!!SMS-shelfmark: R 2418
!!!SMS-shelfwork: W
!!!SMS-variant:
!!!SMS-altvar:
!!!NIFC-rismSourceID: 1001083220
!!!NIFC-islandoraID:
!!!URL-pdf-islandora:
!!!URL-scan:
!!!ONB-nifc:
!!!AIN: 1 forte 1 vox
!!!key:
**kern	**kern	**kern	**text
*part2	*part2	*part1	*part1
*staff3	*staff2	*staff1	*staff1
*Iforte	*Iforte	*Ivox	*
*I"Fortepian	*I"Fortepian	*I"Głos	*
*>[A,B,B,C]	*>[A,B,B,C]	*>[A,B,B,C]	*>[A,B,B,C]
*>A	*>A	*>A	*>A
*clefF4	*clefG2	*clefG2	*
*k[b-]	*k[b-]	*k[b-]	*
*g:	*g:	*g:	*
*M4/4	*M4/4	*M4/4	*
*met(c)	*met(c)	*met(c)	*
=1	=1	=1	=1
*all\right	*	*all\right	*
!	!	!LO:TX:a:i:t=Niepewność. \nA. Mickiewicza.	!
4.g>\	8b-/L	1r	.
.	8b- 8g/	.	.
.	8b- 8g/	.	.
8f>\	8b-J 8g/	.	.
8en>\L	8b-L 8g/	.	.
8d>\J	8b- 8g/	.	.
4r>	8b- 8g/	.	.
.	8b-J 8g/	.	.
=2!|:	=2!|:	=2!|:	=2!|:
*>B	*>B	*>B	*>B
4.g>\	8b-/L	1r	.
.	8b- 8g/	.	.
.	8b- 8g/	.	.
8f>\	8b-J 8g/	.	.
8e>\L	8b-L 8g/	.	.
8d>\	8b- 8g/	.	.
8c#X>\J	8b- 8g/	.	.
8r>	8b-J 8g/	.	.
=3	=3	=3	=3
4.g>\	8b-/L	1r	.
.	8b- 8g/	.	.
.	8b- 8g/	.	.
8f>\	8b-J 8g/	.	.
8e>\L	8b-L 8g/	.	.
8d>\J	8b- 8g/	.	.
4r>	8b- 8g/	.	.
.	8b-J 8g/	.	.
=4	=4	=4	=4
4.g>\	8b-/L	1r	.
.	8b- 8g/	.	.
.	8b- 8g/	.	.
8f>\	8b-J 8g/	.	.
8e>\L	8b-L 8g/	.	.
8d>\	8b- 8g/	.	.
8c#X>\J	8b- 8g/	.	.
8r>	8b-J 8g/	.	.
!!LO:LB:g=original
=5	=5	=5	=5
4r>	8aL 8g/	8r	.
.	8a 8g/	8a/	Gdy
*2\right	*	*	*
(2c#X>\	8a 8g/	8g#X/	cię
.	8aJ 8g/	8a/	nie
.	8aL 8f/	4b-/	wi-
.	8a 8f/	.	.
4d>\)	8a 8f/	4a/	-dzę
.	8aJ 8f/	.	.
=6	=6	=6	=6
4r>	8aL 8g/	8r	.
.	8a 8g/	8a/	nie
4c#>\	8a 8g/	8g#X/	wzdy-
.	8aJ 8g/	16a/	-cham
.	.	16a/	nie
2d>\	8ccL 8g/	4cc/	pła-
.	8cc 8g/	.	.
.	8b- 8g/	4b-/	-czę
.	8b-J 8g/	.	.
=7	=7	=7	=7
4r>	8bnL 8a/	8r	.
.	8b 8a/	8bn\	nie
(2d#X>\	8b 8a/	8a#X\	tra-
.	8bJ 8a/	8b\	-cę
.	8ccL 8g/	4cc\	zmy-
.	8cc 8g/	.	.
4e>\)	8b 8g/	4b\	-słów
.	8bJ 8g/	.	.
=8	=8	=8	=8
4r>	8bnL 8a/	8r	.
.	8b 8a/	8bn\	gdy
(4d#X>\	8b 8a/	8a#X\	cię
.	8bJ 8a/	8b\	zo-
2e>\)	8ddL 8g/	4dd\	-ba-
.	8dd 8g/	.	.
.	8cc 8g/	4cc\	-czę
.	8ccJ 8g/	.	.
!!LO:LB:g=original
=9	=9	=9	=9
8d>\L	8bnL 8g/	8r	.
8c>\	8ee 8g/	8ee\	Je-
8Bn>\	8dd 8g/	8dd\	-dnak-
8A>\J	8ccJ 8g/	8cc\	-że
4.G>\	8bL 8g/	4.bn\	gdy
.	8b 8g/	.	.
.	8b 8g/	.	.
8G>\	8bJ 8g/	8b\	cię
=10	=10	=10	=10
4c>\	8eeL 8g/	8ee\	dłu-
.	8ee 8g/	8ee\	-go
8Bn>\L	8dd 8g/	8dd\	nie
8A>\J	8ccJ 8g/	8cc\	o-
4A>\	8ccL 8g/	4cc\	-glą-
.	8cc 8f#X@/	.	.
8G>@\L	8bn 8g/	4bn\	-dam
8G#X>\J	8bJ 8f#/	.	.
=11	=11	=11	=11
4A>\	8bnL 8f/	8r	.
.	8cc 8e/	8cc\	cze-
8G>\L	8b 8e/	8bn\	-goś
8F>\J	8aJ 8e/	8a\	mi
4F>\	8aL 8d#X/	4a/	bra-
.	8a 8d#/	.	.
4E>\	8g#X 8e/	4g#X/	-knie
.	8g#J 8e/	.	.
=12	=12	=12	=12
4A>\	8ccL 8e/	8cc\	ko-
.	8cc 8e/	8cc\	-goś
8G#X>\L	8bn 8e/	8bn\	wi-
8F#X>\J	8aJ 8e/	8a\	-dzieć
4Fn>\	8aL 8d#X/	4a/	żą-
.	8a 8d#/	.	.
4E>\	8g#X 8e/	8.g#X/	-dam
.	8g#J 8e/	.	.
.	.	16g#/	i
!!LO:LB:g=original
=13	=13	=13	=13
2d>\	8aL 8f/	(>4a/	tę-
.	8a 8f/	.	.
!	!	!LO:N:vis=8	!
.	8a 8f/	8.g#X/)	.
.	8aJ 8f/	.	.
.	.	16g#/	-skniąc
2c>\	8aL 8e/	4bn/	so-
.	8a 8e/	.	.
.	8a 8e/	8.a/	-bię
.	8aJ 8e/	.	.
.	.	16a/	za-
=14	=14	=14	=14
4.e>\	8ccL 8g#X/	4cc\	-da-
.	8cc 8g#/	.	.
.	8bn 8g#/	8.bn\	-ję
8d>\	8bJ 8g#/	.	.
.	.	16b\	py-
!	!LO:ACC:color=grey	!	!
4c>@\	8ee@L 8g#X/	4ee@\	-ta-
.	8ee@ 8g#/	.	.
!	!LO:TX:t=P:problem=# wykreślony ołówkiem	!LO:TX:t=P:problem=# wykreślony ołówkiem	!
4c>@\	8cc 8a/	8cc\	-nie
.	8ccJ 8a/	8r	.
=15	=15	=15	=15
2f>\	8ddL 8a/	4r	.
.	8dd 8a/	.	.
.	8dd 8a/	4dd\	czy
.	8ddJ 8a/	.	.
4e>\	8ccL 8g/	4.cc\	to
.	8cc 8g/	.	.
4d>\	8b- 8g/	.	.
.	8b-J 8g/	8b-\	jest
=16	=16	=16	=16
*	*	*2\right	*
4d>\	8b-L 8f/	2.b-\	przy-
.	8b- 8f/	.	.
2.c#X>\	8b- 8f/	.	.
.	8b-J 8f/	.	.
.	8b-L 8e/	.	.
.	8b- 8e/	.	.
.	8a 8e/	4a/	-jaźń
.	8aJ 8e/	.	.
=17	=17	=17	=17
4.g>\	8eeL 8b-/	4.ee\	czy
.	8ee 8b-/	.	.
.	8ee 8b-/	.	.
8f>\	8ddJ 8b-/	8dd\	to
4.e>\	8ccL 8g/	4.cc\	jest
.	8cc 8g/	.	.
.	8cc 8g/	.	.
8d>\	8b-J 8g/	8b-\	ko-
!!LO:PB:g=original
=18	=18	=18	=18
1d>	8b-L 8f#X/	(2.b-\	-cha-
.	8b- 8f#/	.	.
.	8b- 8f#/	.	.
.	8b-J 8f#/	.	.
.	8b-L 8f#/	.	.
.	8b- 8f#/	.	.
.	8a 8f#/	4a/)	.
.	8aJ 8f#/	.	.
=19	=19	=19	=19
4.g>\	8b-/L	4.g/	-nie.
.	8b- 8g/	.	.
.	8b- 8g/	.	.
8f>\	8b-J 8g/	8r	.
8e>\L	8b-L 8g/	2r	.
8d>\J	8b- 8g/	.	.
4r>	8b- 8g/	.	.
.	8b-J 8g/	.	.
=20:|!	=20:|!	=20:|!	=20:|!
*>C	*>C	*>C	*>C
4.g>\	8b-/L	1r	.
.	8b- 8g/	.	.
.	8b- 8g/	.	.
8f>\	8b-J 8g/	.	.
8e>\L	8b-L 8g/	.	.
8d>\	8b- 8g/	.	.
8c#X>\J	8b- 8g/	.	.
8r>	8b-J 8g/	.	.
=21	=21	=21	=21
4.g>\	8b-/L	1r	.
.	8b- 8g/	.	.
.	8b- 8g/	.	.
8f>\	8b-J 8g/	.	.
8e>\L	8b-L 8g/	.	.
8d>\J	8b- 8g/	.	.
4r>	8b- 8g/	.	.
.	8b-J 8g/	.	.
!!LO:LB:g=original
=22	=22	=22	=22
4.g>\	8b-/L	1r	.
.	8b- 8g/	.	.
.	8b- 8g/	.	.
8f>\	8b-J 8g/	.	.
(>8e>\L	8b-L 8g/	.	.
8d>\	8b- 8g/	.	.
8c#X>\J)	8b- 8g/	.	.
8r>	8b-J 8g/	.	.
=23	=23	=23	=23
2d>\	8b-L 8g/	1r	.
.	8b- 8g/	.	.
.	8b- 8g/	.	.
.	8b-J 8g/	.	.
2ryy	8b-L 8g/	.	.
.	8b- 8g/	.	.
.	8b- 8g/	.	.
.	8b-J 8g/	.	.
=24	=24	=24	=24
2d>\	8b-L 8f#X/	1r	.
.	8b- 8f#/	.	.
.	8b- 8f#/	.	.
.	8b-J 8f#/	.	.
2ryy	8aL 8f#/	.	.
.	8a 8f#/	.	.
.	8a 8f#/	.	.
.	8aJ 8f#/	.	.
=25	=25	=25	=25
*^	*^	*	*
*	*	*	*2\right	*	*
4r	1G	4r	2.g\	1r	.
4B-/	.	4dd/	.	.	.
4c/	.	4ee-X/	.	.	.
4A/	.	4dd/	4f#X\	.	.
=26	=26	=26	=26	=26	=26
4B-/	4G\	4dd/	4g\	1r	.
4BB-/	2.GG\	4d/	2G\	.	.
4C/	.	4e-X/	.	.	.
4AA/	.	4d/	4F#X\	.	.
*v	*v	*	*	*	*
*	*v	*v	*	*
!!LO:LB:g=original
=27	=27	=27	=27
2BB- 2GG/	2d 2G/	1r	.
2D 2GG/	2B- 2G/	.	.
=28	=28	=28	=28
1D 1BB- 1GG;<	1G<;	1r;	.
==	==	==	==
*-	*-	*-	*-
!!!system-decoration: (<s1>{s2,s3})
!!!RDF**kern: > = above
!!!RDF**kern: < = below
!!!RDF**kern: @ = marked note, color=grey
!!!ENC: Anastazja Marusiak
!!!END: 2021-10-31
!!!ENC: Marta Lawrence
!!!END: 2021-11-04
